src/assets/icons/shapes,simple,filled-star5.svg

<svg width="48" height="48" viewBox="0 0 48 48" fill="none" xmlns="http://www.w3.org/2000/svg">
<rect opacity="0.2" x="5" y="5" width="38" height="38" rx="4" fill="black"/>
<path d="M22.2441 11.2196C23.0189 9.79891 23.4063 9.08858 24 9.08858C24.5937 9.08858 24.9811 9.79891 25.7559 11.2196L28.5299 16.306C28.7533 16.7157 28.865 16.9206 29.0473 17.053C29.2296 17.1854 29.4589 17.2284 29.9176 17.3143L35.6123 18.3807C37.2029 18.6786 37.9981 18.8275 38.1816 19.3921C38.3651 19.9567 37.8092 20.5447 36.6975 21.7205L32.7172 25.9306C32.3966 26.2697 32.2363 26.4392 32.1667 26.6535C32.097 26.8678 32.1271 27.0992 32.1871 27.562L32.9327 33.3075C33.1409 34.9123 33.245 35.7146 32.7647 36.0636C32.2844 36.4125 31.5535 36.0656 30.0916 35.3716L24.8577 32.8871C24.4361 32.687 24.2253 32.5869 24 32.5869C23.7747 32.5869 23.5639 32.687 23.1423 32.8871L17.9084 35.3716C16.4465 36.0656 15.7156 36.4125 15.2353 36.0636C14.755 35.7146 14.8591 34.9123 15.0673 33.3075L15.8129 27.562C15.8729 27.0992 15.9029 26.8678 15.8333 26.6535C15.7637 26.4392 15.6034 26.2697 15.2828 25.9306L11.3025 21.7205C10.1908 20.5447 9.63494 19.9567 9.8184 19.3921C10.0019 18.8275 10.7971 18.6786 12.3877 18.3807L18.0824 17.3143C18.5411 17.2284 18.7704 17.1854 18.9527 17.053C19.135 16.9206 19.2467 16.7157 19.4701 16.306L22.2441 11.2196Z" fill="black"/>
</svg>

<svg xmlns="http://www.w3.org/2000/svg" width="48" height="48" fill="none" viewBox="0 0 48 48">
  <rect width="38" height="38" x="5" y="5" fill="#000" opacity=".2" rx="4"/>
  <path fill="#000" d="M22.244 11.22C23.02 9.799 23.406 9.089 24 9.089c.594 0 .981.71 1.756 2.13l2.774 5.087c.223.41.335.615.517.747.183.132.412.175.87.261l5.695 1.067c1.59.298 2.386.447 2.57 1.011.183.565-.373 1.153-1.485 2.329l-3.98 4.21c-.32.339-.48.508-.55.723-.07.214-.04.445.02.908l.746 5.745c.208 1.605.312 2.408-.168 2.757-.48.349-1.212.002-2.673-.692l-5.234-2.485c-.422-.2-.633-.3-.858-.3-.225 0-.436.1-.858.3l-5.234 2.485c-1.462.694-2.192 1.04-2.673.692-.48-.35-.376-1.152-.168-2.757l.746-5.745c.06-.463.09-.694.02-.909-.07-.214-.23-.383-.55-.722l-3.98-4.21c-1.112-1.176-1.668-1.764-1.485-2.329.184-.564.98-.713 2.57-1.011l5.694-1.067c.46-.086.688-.129.87-.261.183-.132.295-.337.518-.747l2.774-5.086z"/>
</svg>
